_icons/SVG/540-sewaddle-shiny.svg

<svg xmlns="http://www.w3.org/2000/svg" viewBox="0 0 32 32"><title>540-sewaddle-shiny</title><path d="M12.07862,24.37539C11.39645,30.25348,12.3051,32,16.00361,32V24.79856A12.399,12.399,0,0,1,12.07862,24.37539Z" style="fill:#78df7c"/><path d="M9.899,4.77532c.57923,6.51306-1.16269,8.40771-4.6273,6.8749-1.13236,1.29179-.99638,3.227-.26441,5.46462.27773-1.17276.91669-1.46867,1.93026-.85475.26478-3.63989,4.2161-7.7461,9.06607-7.7461V.01578Z" style="fill:#6cd275"/><path d="M6.93754,16.26009a4.25971,4.25971,0,0,1,.36233.2412A21.481,21.481,0,0,1,9.23682,19.475c.668-2.00319,3.44246-3.506,6.76679-3.506V8.514C11.15364,8.514,7.20232,12.6202,6.93754,16.26009Z" style="fill:#b1e346"/><path d="M9.23682,19.475a17.01445,17.01445,0,0,0,2.95378,3.98589c-.04248.3188-.07747.61717-.112.91448a12.399,12.399,0,0,0,3.925.42317V15.969C12.67928,15.969,9.90482,17.47183,9.23682,19.475Z" style="fill:#edeeee"/><path d="M7.29987,16.50129c-1.22789-.92124-1.98288-.69439-2.29259.61355.324,2.92639,3.70183,4.65652,7.18332,6.34607C10.45538,22.10226,8.12822,17.25076,7.29987,16.50129Z" style="fill:#84ed82"/><path d="M14.22584,5.57684a2.07581,2.07581,0,1,0,1.77777,3.13231V6.59606A2.06741,2.06741,0,0,0,14.22584,5.57684Z" style="fill:#bee758"/><circle cx="11.25397" cy="14.34188" r="1.62716" style="fill:#373f3f"/><circle cx="11.25397" cy="14.34188" r="0.82762" style="fill:#edeeee"/><path d="M13.887,18.09875l2.11665-1.558V14.17413C12.88113,14.17413,12.46748,16.59289,13.887,18.09875Z" style="fill:#dd564c"/><circle cx="13.03891" cy="25.27749" r="1.59746" style="fill:#d64f45"/><circle cx="12.83365" cy="28.43879" r="1.3922" style="fill:#d64f45"/><circle cx="12.83365" cy="30.969" r="0.96637" style="fill:#d64f45"/><path d="M19.92138,24.35961c.68217,5.87809-.22648,7.62461-3.925,7.62461V24.78278A12.399,12.399,0,0,0,19.92138,24.35961Z" style="fill:#6cd275"/><path d="M22.101,4.75954c-.57923,6.51306,1.16269,8.40771,4.6273,6.8749,1.13236,1.29179.99638,3.227.26441,5.46461-.27773-1.17275-.91669-1.46866-1.93026-.85475-.26478-3.63988-4.2161-7.7461-9.06607-7.7461V0Z" style="fill:#60c46f"/><path d="M25.06246,16.2443a4.26233,4.26233,0,0,0-.36233.24121,21.481,21.481,0,0,0-1.937,2.97373c-.668-2.00319-3.44246-3.506-6.76679-3.506V8.4982C20.84636,8.4982,24.79768,12.60442,25.06246,16.2443Z" style="fill:#aadb3d"/><path d="M22.76318,19.45924a17.01445,17.01445,0,0,1-2.95378,3.98589c.04248.3188.07747.61716.112.91448a12.399,12.399,0,0,1-3.925.42317V15.95325C19.32072,15.95325,22.09518,17.45605,22.76318,19.45924Z" style="fill:#e3e5e5"/><path d="M24.70013,16.48551c1.22789-.92124,1.98288-.6944,2.29259.61354-.324,2.9264-3.70183,4.65653-7.18332,6.34608C21.54462,22.08648,23.87178,17.235,24.70013,16.48551Z" style="fill:#78df7c"/><path d="M17.77416,5.56106a2.07581,2.07581,0,1,1-1.77777,3.13231V6.58028A2.06741,2.06741,0,0,1,17.77416,5.56106Z" style="fill:#b1e346"/><circle cx="20.74603" cy="14.3261" r="1.62716" style="fill:#2b3332"/><circle cx="20.74603" cy="14.3261" r="0.82762" style="fill:#e3e5e5"/><path d="M18.113,18.083l-2.11665-1.558V14.15835C19.11887,14.15835,19.53252,16.57711,18.113,18.083Z" style="fill:#d64f45"/><circle cx="18.96109" cy="25.26171" r="1.59746" style="fill:#d1473d"/><circle cx="19.16635" cy="28.42301" r="1.3922" style="fill:#d1473d"/><circle cx="19.16635" cy="30.95322" r="0.96637" style="fill:#d1473d"/></svg>

<svg xmlns="http://www.w3.org/2000/svg" viewBox="0 0 32 32"><path d="M12.079 24.375c-.683 5.878.226 7.625 3.925 7.625v-7.201a12.399 12.399 0 01-3.925-.424z" fill="#78df7c"/><path d="M9.899 4.775c.58 6.513-1.163 8.408-4.627 6.875-1.133 1.292-.997 3.227-.265 5.465.278-1.173.917-1.469 1.93-.855.265-3.64 4.217-7.746 9.067-7.746V.016z" fill="#6cd275"/><path d="M6.938 16.26a4.26 4.26 0 01.362.241 21.481 21.481 0 011.937 2.974c.668-2.003 3.442-3.506 6.767-3.506V8.514c-4.85 0-8.802 4.106-9.066 7.746z" fill="#b1e346"/><path d="M9.237 19.475a17.014 17.014 0 002.954 3.986c-.043.319-.078.617-.112.914a12.399 12.399 0 003.925.424v-8.83c-3.325 0-6.1 1.503-6.767 3.506z" fill="#edeeee"/><path d="M7.3 16.501c-1.228-.921-1.983-.694-2.293.614.324 2.926 3.702 4.656 7.184 6.346-1.736-1.359-4.063-6.21-4.891-6.96z" fill="#84ed82"/><path d="M14.226 5.577a2.076 2.076 0 101.778 3.132V6.596a2.067 2.067 0 00-1.778-1.02z" fill="#bee758"/><circle cx="11.254" cy="14.342" r="1.627" fill="#373f3f"/><circle cx="11.254" cy="14.342" r=".828" fill="#edeeee"/><path d="M13.887 18.099l2.117-1.558v-2.367c-3.123 0-3.537 2.419-2.117 3.925z" fill="#dd564c"/><circle cx="13.039" cy="25.277" r="1.597" fill="#d64f45"/><circle cx="12.834" cy="28.439" r="1.392" fill="#d64f45"/><circle cx="12.834" cy="30.969" r=".966" fill="#d64f45"/><path d="M19.921 24.36c.683 5.878-.226 7.624-3.925 7.624v-7.201a12.399 12.399 0 003.925-.423z" fill="#6cd275"/><path d="M22.101 4.76c-.58 6.513 1.163 8.407 4.627 6.874 1.133 1.292.997 3.227.265 5.465-.278-1.173-.917-1.469-1.93-.855-.265-3.64-4.217-7.746-9.067-7.746V0z" fill="#60c46f"/><path d="M25.062 16.244a4.262 4.262 0 00-.362.242 21.481 21.481 0 00-1.937 2.973c-.668-2.003-3.442-3.506-6.767-3.506V8.498c4.85 0 8.802 4.106 9.066 7.746z" fill="#aadb3d"/><path d="M22.763 19.46a17.014 17.014 0 01-2.954 3.985c.043.319.078.617.112.915a12.399 12.399 0 01-3.925.423v-8.83c3.325 0 6.1 1.503 6.767 3.506z" fill="#e3e5e5"/><path d="M24.7 16.486c1.228-.922 1.983-.695 2.293.613-.324 2.926-3.702 4.657-7.184 6.346 1.736-1.359 4.063-6.21 4.891-6.96z" fill="#78df7c"/><path d="M17.774 5.561a2.076 2.076 0 11-1.778 3.132V6.58a2.067 2.067 0 011.778-1.019z" fill="#b1e346"/><circle cx="20.746" cy="14.326" r="1.627" fill="#2b3332"/><circle cx="20.746" cy="14.326" r=".828" fill="#e3e5e5"/><path d="M18.113 18.083l-2.117-1.558v-2.367c3.123 0 3.537 2.42 2.117 3.925z" fill="#d64f45"/><circle cx="18.961" cy="25.262" r="1.597" fill="#d1473d"/><circle cx="19.166" cy="28.423" r="1.392" fill="#d1473d"/><circle cx="19.166" cy="30.953" r=".966" fill="#d1473d"/></svg>
